X: 4568
T: Both Meat And Drink
R: jig
M: 6/8
K: Gmajor
|:DGB d^cd|edB cAF|GBd g2 a|bag f/g/af|
geg fdf|ece gfe|~f3 agf|gdB cAF:|
|:~g3 ~g3|dBG GFG|~=f3 ~f3|agf agf|
~g3 bag|f/g/af gdB|cAG FGA|AGF G3:|

